static/assets/images/addons/logos/proxysqls.svg

<svg width="16" height="16" viewBox="0 0 16 16" fill="none" xmlns="http://www.w3.org/2000/svg">
<g clip-path="url(#clip0_703_2680)">
<path d="M8.00715 16.0574H7.37635L6.6767 15.9656C6.4473 15.9656 6.2294 15.8509 6 15.8165H5.8509H5.4724C5.3769 15.8214 5.2812 15.8214 5.18565 15.8165C5.1417 15.8048 5.10195 15.781 5.07095 15.7477L4.93333 15.5985L4.68101 15.3004H4.60072H4.49749C4.09929 15.1028 3.71596 14.8767 3.35054 14.6236C2.99402 14.3574 2.66026 14.0621 2.35269 13.7405C2.08889 13.4653 1.87097 13.1441 1.61864 12.8574L1.481 12.6165L1.26309 12.4674C1.26309 12.4674 1.12545 12.2954 1.02222 12.2954C0.99408 12.2791 0.97076 12.2557 0.95464 12.2275C0.938515 12.1993 0.930175 12.1673 0.930465 12.1348C0.930465 11.9742 0.930465 11.8021 0.930465 11.6072C0.940675 11.5387 0.940675 11.4691 0.930465 11.4007C0.527445 10.5201 0.275423 9.5779 0.184946 8.6136C0.184946 8.30395 0.184946 7.9828 0.184946 7.66165C0.196644 7.61265 0.196644 7.56155 0.184946 7.51255C0.167436 7.4195 0.144457 7.3276 0.116129 7.2373C0.116129 7.06525 -0.0903225 6.83585 0.0473118 6.67525C0.153938 6.547 0.253489 6.41295 0.345519 6.27385C0.355396 6.24015 0.355396 6.2043 0.345519 6.1706C0.348968 6.1095 0.348968 6.0482 0.345519 5.9871C0.59186 5.1227 0.9794 4.305 1.49248 3.56702C1.72187 3.23441 1.98566 2.95914 2.23799 2.64946C2.35661 2.45045 2.45279 2.23888 2.52473 2.01864C2.52473 1.93835 2.6853 1.92688 2.76559 1.91541L3.16703 1.82366L3.362 1.68602L3.67168 1.47957C4.56854 0.916895 5.57215 0.545915 6.61935 0.389964C6.77995 0.389964 6.95195 0.389964 7.11255 0.321147H7.33045C7.33045 0.321147 7.47955 0.263799 7.52545 0.263799L8.00715 0C8.00715 0 8.08745 0 8.12185 0.0573475C8.15625 0.114696 8.43155 0.229391 8.5921 0.298208C8.6372 0.310387 8.6847 0.310387 8.72975 0.298208C8.9513 0.303082 9.1712 0.337803 9.3835 0.401433C9.60145 0.401433 9.8308 0.49319 10.0487 0.562005C10.4896 0.68647 10.9193 0.847605 11.3334 1.04373C11.7774 1.24562 12.2001 1.49153 12.595 1.77778V1.83512H12.6753C12.7772 1.86352 12.8806 1.88649 12.985 1.90394C13.0613 1.90934 13.1379 1.90934 13.2143 1.90394C13.2388 1.91686 13.2587 1.93685 13.2717 1.96129L13.3635 2.19068L13.4782 2.46595L13.547 2.61506C13.547 2.70681 13.696 2.77562 13.7534 2.85592C13.8108 2.9362 13.9025 3.02795 13.9713 3.10824L14.3728 3.65878C14.6218 4.02251 14.8404 4.40612 15.0265 4.80574C15.2088 5.2035 15.3511 5.61845 15.4509 6.04445C15.4813 6.1258 15.5281 6.19995 15.5885 6.26235C15.683 6.3839 15.771 6.5102 15.8524 6.64085C15.8614 6.6586 15.8661 6.67825 15.8661 6.6982C15.8661 6.71815 15.8614 6.7378 15.8524 6.75555V6.8817C15.8186 7.0231 15.7725 7.16125 15.7147 7.2946C15.6866 7.39205 15.6866 7.4954 15.7147 7.59285C15.7433 8.0703 15.7433 8.54905 15.7147 9.0265C15.655 9.5043 15.5553 9.97625 15.4165 10.4373C15.3133 10.7699 15.1756 11.0795 15.0494 11.3892C15.0393 11.4307 15.0393 11.474 15.0494 11.5154V12.0316C15.0479 12.0784 15.0344 12.124 15.0104 12.1641C14.9863 12.2042 14.9524 12.2375 14.9118 12.261C14.7823 12.3237 14.6625 12.4047 14.5562 12.5018C14.4732 12.5403 14.4048 12.6047 14.3613 12.6853L14.1549 12.9491C14.0172 13.1211 13.8681 13.2932 13.719 13.4537C13.4144 13.7818 13.0804 14.0813 12.7212 14.3484C12.3825 14.603 12.026 14.8329 11.6545 15.0365L11.5398 15.0939C11.3689 15.2249 11.2216 15.3839 11.1039 15.5641C11.07 15.5724 11.0346 15.5724 11.0007 15.5641C10.7374 15.5413 10.4727 15.5413 10.2093 15.5641L9.762 15.6559C9.47525 15.7133 9.17705 15.7591 8.87885 15.7935C8.5955 15.9037 8.30405 15.9919 8.00715 16.0574ZM6.16055 14.5778H6.24085C6.73405 14.5778 7.19285 14.7727 7.686 14.7957C8.3033 14.8211 8.9211 14.7593 9.52115 14.6122C9.63225 14.5757 9.7483 14.5563 9.86525 14.5548H10.4387C10.4647 14.5636 10.493 14.5636 10.519 14.5548L10.7254 14.314C10.7852 14.2367 10.8546 14.1672 10.9319 14.1075C11.3865 13.8477 11.8199 13.5525 12.228 13.2243C12.4338 13.0568 12.6291 12.8767 12.8129 12.6853C12.8932 12.605 13.1914 12.1233 13.2946 12.1233C13.3978 12.1233 13.4208 11.9169 13.5355 11.8825C13.6615 11.8361 13.7753 11.7615 13.8681 11.6645C13.9943 11.5384 13.9484 11.3319 13.9599 11.1713V11.0567C13.9798 10.9422 14.0227 10.8329 14.086 10.7355C14.4448 9.83455 14.624 8.8722 14.6136 7.9025C14.6019 7.7958 14.6019 7.6881 14.6136 7.58135C14.6488 7.41795 14.6948 7.257 14.7513 7.09965C14.7618 7.06995 14.7618 7.03755 14.7513 7.0079C14.6846 6.8744 14.5997 6.7509 14.499 6.64085C14.3829 6.4722 14.3047 6.2805 14.2696 6.07885C14.2103 5.859 14.1336 5.6442 14.0401 5.43655C13.8532 5.0327 13.6265 4.6485 13.3635 4.28961C13.1914 4.04875 12.962 3.83083 12.79 3.5785C12.695 3.40328 12.6181 3.21881 12.5605 3.02796C12.5421 3.0209 12.5217 3.0209 12.5033 3.02796H12.2624L12.0215 2.97061H11.9527C11.5024 2.65954 11.0266 2.38713 10.5304 2.15628C9.9347 1.8939 9.2986 1.73487 8.64945 1.68602H8.51185C8.51185 1.68602 8.42005 1.62867 8.3627 1.60573L8.15625 1.26165C8.11 1.21914 8.0601 1.18077 8.00715 1.14696L7.57135 1.37635C7.4316 1.40668 7.2897 1.42586 7.14695 1.43369C6.97705 1.44835 6.8084 1.47519 6.6423 1.51398C6.3065 1.58363 5.9767 1.6795 5.6559 1.80071C5.07615 2.02628 4.52859 2.32707 4.02724 2.69534C3.95947 2.71233 3.88856 2.71233 3.82079 2.69534H3.60287C3.55122 2.70359 3.50426 2.73015 3.47057 2.77016C3.43688 2.81017 3.4187 2.86096 3.41935 2.91326C3.31613 3.07383 3.30466 3.28029 3.17849 3.44086C2.87536 3.80779 2.59204 4.19065 2.32975 4.58781C2.09165 4.94656 1.89539 5.3314 1.7448 5.73475C1.66016 5.9524 1.58742 6.17445 1.52688 6.4C1.53306 6.43025 1.53306 6.4615 1.52688 6.49175L1.21721 6.8817C1.19205 6.91245 1.1783 6.95095 1.1783 6.9907C1.1783 7.0304 1.19205 7.0689 1.21721 7.09965C1.24911 7.1781 1.27593 7.25855 1.29749 7.3405L1.36631 7.59285C1.36631 7.81075 1.36631 8.0631 1.36631 8.281C1.36785 8.52675 1.38701 8.77205 1.42366 9.01505C1.50445 9.61405 1.66251 10.2001 1.89391 10.7584C1.95043 10.8529 1.98566 10.9586 1.99714 11.0681C2.00257 11.1445 2.00257 11.2211 1.99714 11.2975C1.99714 11.3778 1.99714 11.4466 1.99714 11.5269C1.99359 11.5541 1.99825 11.5817 2.01051 11.6062C2.02277 11.6308 2.04207 11.6511 2.06595 11.6645C2.17717 11.7266 2.28443 11.7955 2.38709 11.8709C2.53287 11.9803 2.66058 12.1119 2.76559 12.261C3.16781 12.7893 3.6518 13.2501 4.19929 13.6258C4.34838 13.729 4.49749 13.8322 4.65806 13.924C4.80472 14.0157 4.95808 14.0962 5.11685 14.1649H5.18565L5.2545 14.2566L5.46095 14.486C5.49425 14.4983 5.53085 14.4983 5.56415 14.486H5.83945C5.95065 14.4995 6.059 14.5305 6.16055 14.5778Z" fill="#1971BD"/>
<path opacity="0.3" d="M12.664 7.60431C12.3691 6.92581 11.8829 6.34786 11.2648 5.94121C10.5858 5.48131 9.79052 5.22286 8.97087 5.19571C8.55682 5.18791 8.14372 5.23811 7.74362 5.34481C7.54552 5.39551 7.35022 5.45676 7.15867 5.52831C6.97637 5.61016 6.78857 5.67916 6.59667 5.73476C6.57747 5.74586 6.55572 5.75166 6.53357 5.75166C6.51142 5.75166 6.48967 5.74586 6.47047 5.73476C6.33287 5.62006 6.47047 5.33336 6.47047 5.19571C6.56037 5.00646 6.69407 4.84131 6.86047 4.71399C7.44272 4.3217 8.10302 4.06014 8.79602 3.94728C9.48897 3.83443 10.1981 3.87296 10.8748 4.06022L11.2304 4.14051C11.1805 4.10696 11.1265 4.07998 11.0698 4.06022C10.0138 3.72665 8.88552 3.69487 7.81242 3.96847C7.15582 4.12501 6.54372 4.42961 6.02287 4.859C5.50202 5.28841 5.08627 5.83116 4.80741 6.44591C4.56785 7.20636 4.63792 8.03066 5.00237 8.73981C5.23622 9.19326 5.56032 9.59406 5.95482 9.91751C6.34932 10.241 6.80582 10.4804 7.29632 10.6208L7.61747 10.7011C7.63367 10.706 7.64847 10.7149 7.66047 10.7269C7.67247 10.7389 7.68132 10.7537 7.68627 10.7699V10.8387C7.31332 11.072 6.88732 11.207 6.44807 11.2311C6.00882 11.2551 5.57067 11.1675 5.17442 10.9764C4.47878 10.6215 3.87734 10.1066 3.41959 9.47386C3.11085 9.10696 2.88754 8.67601 2.76583 8.21221C2.65683 7.42456 2.65683 6.62566 2.76583 5.83801C2.63444 6.37051 2.57655 6.91846 2.59379 7.46666C2.67587 8.28411 2.95105 9.07036 3.39666 9.76061C3.96583 10.6623 4.83133 11.3377 5.84442 11.6705C6.85752 12.0033 7.95487 11.9728 8.94792 11.5843C9.69352 11.25 10.3311 10.7144 10.789 10.0376C11.2469 9.36091 11.507 8.56986 11.54 7.75341C11.5355 7.71531 11.5355 7.67681 11.54 7.63871H11.6433C11.9614 7.96666 12.189 8.37166 12.3036 8.81396C12.4182 9.25631 12.4159 9.72081 12.297 10.162C12.0961 11.0411 11.6367 11.84 10.978 12.4559L10.8863 12.6165C10.9032 12.6279 10.9232 12.6339 10.9436 12.6339C10.964 12.6339 10.984 12.6279 11.001 12.6165C11.1166 12.5389 11.2277 12.4546 11.3336 12.3642C11.9876 11.8183 12.4683 11.0936 12.7168 10.2788C12.9653 9.46391 12.9709 8.59431 12.7329 7.77636L12.664 7.60431Z" fill="#1971BD"/>
<path d="M10.3009 7.82219C10.1456 7.44154 9.85578 7.13129 9.48658 6.95054C9.18668 6.80624 8.85548 6.73919 8.52313 6.75554C8.34678 6.77749 8.17358 6.81979 8.00698 6.88169C7.85788 6.88169 7.73173 7.01934 7.59408 7.05374C7.47938 6.93904 7.59408 6.72114 7.73173 6.64084C7.85828 6.52519 8.00638 6.43554 8.16758 6.37704C8.41843 6.28794 8.68143 6.23764 8.94748 6.22794C9.08843 6.21099 9.23093 6.21099 9.37188 6.22794C9.48973 6.24539 9.60953 6.24539 9.72743 6.22794C9.70103 6.22164 9.67353 6.22164 9.64713 6.22794C9.26043 6.09639 8.84643 6.06634 8.44478 6.14064C8.04313 6.21494 7.66728 6.39114 7.35323 6.65234C7.13808 6.82219 6.96858 7.04289 6.86003 7.29464C6.80678 7.46429 6.78743 7.64274 6.80318 7.81989C6.81893 7.99699 6.86943 8.16929 6.95178 8.32689C7.05773 8.53489 7.20653 8.71809 7.38838 8.86434C7.57028 9.01064 7.78113 9.11674 8.00698 9.17564H8.15608L8.00698 9.31324C7.85758 9.38139 7.69523 9.41669 7.53098 9.41669C7.36678 9.41669 7.20443 9.38139 7.05503 9.31324C6.79228 9.20124 6.55733 9.03289 6.36683 8.82004C6.20148 8.65994 6.06898 8.46899 5.97688 8.25804C5.85043 7.85014 5.81518 7.41944 5.87363 6.99639C5.87363 7.24874 5.79338 7.46664 5.80483 7.71899C5.81358 7.92339 5.85618 8.12494 5.93098 8.31539C6.06973 8.69554 6.31208 9.02929 6.63063 9.27884C6.85278 9.45129 7.10758 9.57679 7.37968 9.64774C7.65173 9.71874 7.93538 9.73369 8.21343 9.69174C8.55218 9.63514 8.86983 9.48959 9.13383 9.26989C9.39783 9.05024 9.59873 8.76439 9.71593 8.44159C9.78443 8.26214 9.81938 8.07164 9.81918 7.87954C9.94788 8.01069 10.0432 8.17084 10.097 8.34649C10.1509 8.52214 10.1618 8.70814 10.1288 8.88889C10.0671 9.32819 9.85663 9.73304 9.53243 10.0358L9.47508 10.1046L9.62418 9.98994C9.92673 9.77144 10.1593 9.46979 10.2937 9.12164C10.4281 8.77349 10.4585 8.39379 10.3812 8.02869L10.3009 7.82219Z" fill="#1971BD"/>
</g>
<defs>
<clipPath id="clip0_703_2680">
<rect width="16" height="16" fill="white"/>
</clipPath>
</defs>
</svg>

<svg xmlns="http://www.w3.org/2000/svg" width="16" height="16" fill="none" xmlns:v="https://vecta.io/nano"><g clip-path="url(#A)" fill="#1971bd"><path d="M8.007 16.057h-.631l-.7-.092c-.229 0-.447-.115-.677-.149h-.149-.378a2.8 2.8 0 0 1-.287 0c-.044-.012-.084-.035-.115-.069l-.138-.149-.252-.298h-.08-.103c-.398-.198-.782-.424-1.147-.677a8.02 8.02 0 0 1-.998-.883c-.264-.275-.482-.596-.734-.883l-.138-.241-.218-.149s-.138-.172-.241-.172c-.028-.016-.051-.04-.068-.068s-.024-.06-.024-.093v-.528a.7.7 0 0 0 0-.207C.527 10.52.275 9.578.185 8.614v-.952a.32.32 0 0 0 0-.149c-.018-.093-.04-.185-.069-.275 0-.172-.206-.401-.069-.562.107-.128.206-.262.298-.401.01-.034.01-.07 0-.103a1.63 1.63 0 0 0 0-.184c.246-.864.634-1.682 1.147-2.42.229-.333.493-.608.746-.918a3.13 3.13 0 0 0 .287-.631c0-.08.161-.092.241-.103l.401-.092.195-.138.31-.206C4.569.917 5.572.546 6.619.39c.161 0 .333 0 .493-.069h.218s.149-.057.195-.057L8.007 0s.08 0 .115.057.31.172.47.241c.045.012.093.012.138 0 .222.005.441.04.654.103.218 0 .447.092.665.161.441.124.871.286 1.285.482.444.202.867.448 1.262.734v.057h.08a2.99 2.99 0 0 0 .31.069c.076.005.153.005.229 0 .024.013.044.033.057.057l.092.229.115.275.069.149c0 .092.149.161.206.241s.149.172.218.252l.402.551c.249.364.468.747.654 1.147a6.57 6.57 0 0 1 .424 1.239.63.63 0 0 0 .138.218 4.45 4.45 0 0 1 .264.379c.009.018.014.037.014.057s-.005.04-.014.057v.126a2.5 2.5 0 0 1-.138.413.54.54 0 0 0 0 .298 11.99 11.99 0 0 1 0 1.434c-.06.478-.159.95-.298 1.411-.103.333-.241.642-.367.952-.01.041-.01.085 0 .126v.516c-.002.047-.015.092-.039.133s-.058.073-.099.097a1.49 1.49 0 0 0-.356.241c-.083.039-.151.103-.195.184l-.206.264-.436.505a7.33 7.33 0 0 1-.998.895 8.87 8.87 0 0 1-1.067.688l-.115.057c-.171.131-.318.29-.436.47-.034.008-.069.008-.103 0-.263-.023-.528-.023-.791 0l-.447.092-.883.138a5.93 5.93 0 0 1-.872.264zm-1.847-1.48h.08c.493 0 .952.195 1.445.218.617.025 1.235-.036 1.835-.184a1.15 1.15 0 0 1 .344-.057h.573c.026.009.054.009.08 0l.206-.241a1.15 1.15 0 0 1 .207-.207 9.93 9.93 0 0 0 1.296-.883 6.5 6.5 0 0 0 .585-.539c.08-.08.378-.562.482-.562s.126-.206.241-.241a.88.88 0 0 0 .333-.218c.126-.126.08-.333.092-.493v-.115a.86.86 0 0 1 .126-.321 7.44 7.44 0 0 0 .528-2.833c-.012-.107-.012-.214 0-.321.035-.163.081-.324.138-.482.01-.03.01-.062 0-.092a1.61 1.61 0 0 0-.252-.367 1.42 1.42 0 0 1-.229-.562 4.28 4.28 0 0 0-.229-.642c-.187-.404-.414-.788-.677-1.147-.172-.241-.402-.459-.574-.711-.095-.175-.172-.36-.229-.551a.08.08 0 0 0-.057 0h-.241l-.241-.057h-.069c-.45-.311-.926-.583-1.422-.814-.596-.262-1.232-.421-1.881-.47h-.138s-.092-.057-.149-.08l-.206-.344c-.046-.043-.096-.081-.149-.115l-.436.229a2.7 2.7 0 0 1-.424.057 3.57 3.57 0 0 0-.505.08 6.56 6.56 0 0 0-.986.287 7.1 7.1 0 0 0-1.629.895c-.068.017-.139.017-.206 0h-.218c-.052.008-.099.035-.132.075s-.052.091-.051.143c-.103.161-.115.367-.241.528-.303.367-.586.75-.849 1.147-.238.359-.434.744-.585 1.147-.085.218-.157.44-.218.665a.23.23 0 0 1 0 .092l-.31.39c-.025.031-.039.069-.039.109s.014.078.039.109a1.97 1.97 0 0 1 .08.241l.069.252v.688a5.14 5.14 0 0 0 .057.734c.081.599.239 1.185.47 1.743.057.095.092.2.103.31.005.076.005.153 0 .229v.229c-.004.027.001.055.013.079s.032.045.055.058c.111.062.218.131.321.206a1.74 1.74 0 0 1 .378.39 6.24 6.24 0 0 0 1.434 1.365l.459.298a3.45 3.45 0 0 0 .459.241h.069l.069.092.206.229c.033.012.07.012.103 0h.275c.111.013.22.044.321.092z"/><path opacity=".3" d="M12.664 7.604c-.295-.678-.781-1.256-1.399-1.663-.679-.46-1.474-.718-2.294-.745a4.44 4.44 0 0 0-1.227.149c-.198.051-.393.112-.585.184a4.28 4.28 0 0 1-.562.206c-.019.011-.041.017-.063.017s-.044-.006-.063-.017c-.138-.115 0-.401 0-.539a1.32 1.32 0 0 1 .39-.482c.582-.392 1.243-.654 1.936-.767s1.402-.074 2.079.113l.356.08a.7.7 0 0 0-.161-.08 5.94 5.94 0 0 0-3.257-.092c-.657.157-1.269.461-1.79.891s-.937.972-1.215 1.587a3.03 3.03 0 0 0 .195 2.294 3.74 3.74 0 0 0 2.294 1.881l.321.08c.016.005.031.014.043.026s.021.027.026.043v.069c-.373.233-.799.368-1.238.392s-.877-.064-1.274-.255A4.93 4.93 0 0 1 3.42 9.474c-.309-.367-.532-.798-.654-1.262a8.66 8.66 0 0 1 0-2.374 6.01 6.01 0 0 0-.172 1.629c.082.817.357 1.604.803 2.294a4.59 4.59 0 0 0 5.551 1.824c.746-.334 1.383-.87 1.841-1.547a4.39 4.39 0 0 0 .751-2.284.49.49 0 0 1 0-.115h.103a2.64 2.64 0 0 1 .654 2.523 4.52 4.52 0 0 1-1.319 2.294l-.092.161c.017.011.037.017.057.017s.04-.006.057-.017a3.62 3.62 0 0 0 .333-.252 4.38 4.38 0 0 0 1.399-4.588l-.069-.172z"/><path d="M10.301 7.822c-.155-.381-.445-.691-.814-.872-.3-.144-.631-.211-.963-.195-.176.022-.35.064-.516.126-.149 0-.275.138-.413.172-.115-.115 0-.333.138-.413.127-.116.275-.205.436-.264.251-.089.514-.139.78-.149.141-.017.283-.017.424 0 .118.017.238.017.356 0-.026-.006-.054-.006-.08 0-.387-.132-.801-.162-1.202-.087s-.777.25-1.092.512a1.65 1.65 0 0 0-.493.642c-.053.17-.073.348-.057.525s.066.349.149.507a1.65 1.65 0 0 0 1.055.849h.149l-.149.138c-.149.068-.312.103-.476.103s-.327-.035-.476-.103a1.95 1.95 0 0 1-.688-.493c-.165-.16-.298-.351-.39-.562-.126-.408-.162-.839-.103-1.262 0 .252-.08.47-.069.723a1.85 1.85 0 0 0 .126.596 2.17 2.17 0 0 0 .7.963c.222.172.477.298.749.369s.556.086.834.044a1.94 1.94 0 0 0 1.502-1.25 1.57 1.57 0 0 0 .103-.562c.129.131.224.291.278.467s.065.362.032.542a1.94 1.94 0 0 1-.596 1.147l-.057.069.149-.115c.303-.219.535-.52.67-.868s.165-.728.088-1.093l-.08-.206z"/></g><defs><clipPath id="A"><path fill="#fff" d="M0 0h16v16H0z"/></clipPath></defs></svg>
